X:4692
L:1/8
Q:1/8=180
M:4/4
K:G
 D | G2 GB A2 Ac | B2 BA BGEF | GFGB AGAB | (3dcB Ac BEEF | G2 GB A2 Ac | B2 BA BGEF | GFGB AGAB | 
 (3dcB Ac BEE :| f | gedf geef | geae fd d2 | efge aged | (3Bcd Ac BEEf | gedf geef | geae fd d2 | 
 efge aged |1 (3Bcd Ac BEE :|2 (3Bcd Ac BE !fermata!E2 |]

